X: 9
T: Sooner the better
%R: jig
B: "Twenty Four Country Dances for the Year 1782", Thomas Skillern, ed. p.5 #1
F: http://www.vwml.org/browse/browse-collections-dance-tune-books/browse-skillerns1782#
Z: 2014 John Chambers <jc:trillian.mit.edu>
M: 6/8
L: 1/8
K: G
d |\
gdB dBG | cAG F>ED | GAG dBG | FAA A2A/G/ |\
FAd ^ceg | fda a2a/g/ | fed eAg | fd2 z2 :|
|: d |\
dcB BAG | cee e2e | ed^c cBA | dff f2d |\
gBc def | gBc def | gde cAd | BG2 z2 :|
%%begintext align
%%   Cast off one Cu. Rigadoon and Allemand
%% with the Right hand .| Cast up and Allemand
%% with the Left hand .|. Lead down two Cu.s
%% up again and cast off :|. hands Six round :|:
%%endtext
